X: 32521
T: Planxty Crilly
R: jig
M: 6/8
K: Cdorian
|:DEF FcA|BdG FDB,|EGE DFD|CDE F2F|
FGB BGB|cdc cBc|B/c/dG FDF|1 BcB B2B,:|2 BcB B2G||
FDF FDF|G/F/DC B,CD|FF/D/F GG/F/D|FF/D/C B,3|
dd/c/B cc/B/A|BB/A/G (AA/)G/F|(5:3:5GFGAB cdB|A3 G3|
FDF FD/C/B,|cdc cBc|B/c/dG FDF|BcB B2B,||

